X:1
T:Anglais efter Per Nilsson Dahlberg
T:(SvL Skne nr 193)
S:efter Per Nilsson Dahlberg
S:Svenska Ltar
R:Anglais
Z:Patrik Mnsson, 2009-01-03
O:Nym, Skne
M:2/4
L:1/16
K:C
|: C2cc (cE)Gc | eggg gBce | Bddd BDGB | Bded c4 :|
|: eggg eBce | f2a2 a4 | BDGB d2e2 | fagB c4 :|
